X: 10401
T: MARY KETTY.     a Strathspey.
R: strathspey
B: "Edinburgh Repository of Music" v.1 p.40 #1
F: http://digital.nls.uk/special-collections-of-printed-music/pageturner.cfm?id=87776133
Z: 2015 John Chambers <jc:trillian.mit.edu>
M: C
L: 1/8
K: G
B |\
G<G TG2 TB>ABd | G<G G>c B/c/d A>B |\
G<G G<G TB>ABd | (e/f/g) d<g B<g A :|\
c |\
Bd- de/f/ gdTe>d | Bd- de/f/ gBA>c |
Bd- de/f/ gdTe>d | c<aB<g B<gAc |\
Bd- de/f/ gdTe>d | Bd- de/f/ gBA>c |\
Bd- de/f/ (g/f/g/a/) bd | c<aB<g B<gA |]
